X:1
T:St. Jerome, 88.88.88
T:St. Jerome, 88.88.88
T:Francis Henry Champneys, 1889
T:Public Domain Courtesy of the Cyber Hymnal™
C:Francis Henry Champneys, 1889
Z:Public Domain
Z:Courtesy of the Cyber Hymnal™
%%score ( 1 2 ) ( 3 4 )
L:1/8
Q:1/4=112
M:4/4
K:G
V:1 treble 
V:2 treble 
V:3 bass 
V:4 bass 
V:1
 [Gd]2 | [Ee]2 (dc) Bc [Gd]2 | [GA]2 [FA]2 G2 B2 | [EA]2 [FB]2 [G^c]2 d2 | %4
 ([FA][EG]) ([DF][^CE]) D2 [Fd]2 | [Gc]2 (BA) [DB]2 [EB]2 | [EA]2 (GF) [EG]2 [EG]2 | %7
 [EG]2 ([DF][^CE]) [DF]2 [Fd]2 | ([Fd][Ge]) [E^c]2 [Dd]2 [Gd]2 | [Ee]2 (dc) (Bc) [Gd]2 | %10
 [GA]2 [FA]2 G2 [FG]2 | [EA]2 [Dc]2 [Cc]2 [EB]2 | [EA]2 A2 [B,G]2 |] %13
V:2
 x2 | x2 F2 G2 x2 | x4 G2 (GF) | x6 (AF) | x4 D2 x2 | x2 D2 x4 | x2 ^D2 x4 | x8 | x8 | %9
 x2 F2 G2 x2 | x4 G2 x2 | x8 | x2 (DC) x2 |] %13
V:3
 [G,B,]2 | [C,C]2 (B,A,) G,A, [B,,B,]2 | [C,E]2 (DC) [G,,B,]2 [G,D]2 | [G,^C]2 [F,D]2 [E,E]2 (FD) | %4
 [G,B,]2 (A,[A,,G,]) [D,F,]2 [D,A,]2 | [E,G,]2 (DC) [G,B,]2 [G,B,]2 | %6
 [F,C]2 [B,,B,]2 [E,B,]2 [D,B,]2 | [^C,A,]2 [A,,A,]2 A,2 B,2 | [G,,B,]2 (A,G,) [D,F,]2 [B,,D]2 | %9
 (DC) (B,A,) (G,A,) [B,,B,]2 | [C,E]2 (DC) [E,B,]2 [D,B,]2 | [C,C]2 [^G,,E,]2 [A,,E,]2 =G,2 | %12
 [C,G,]2 [D,F,]2 [G,,G,]2 |] %13
V:4
 x2 | x2 D,2 E,2 x2 | x2 D,2 x4 | x6 D,2 | x2 A,2 x4 | x2 F,2 x4 | x8 | x4 (D,^C,) (B,,A,,) | %8
 x2 A,,2 x4 | C,2 D,2 E,2 x2 | x2 D,2 x4 | x6 (E,D,) | x6 |] %13

